demo/assets/svg/components/popover-right.svg

<?xml version="1.0" encoding="utf-8"?>
<!-- Generator: Adobe Illustrator 24.2.1, SVG Export Plug-In . SVG Version: 6.00 Build 0)  -->
<svg version="1.1" id="Layer_1" xmlns="http://www.w3.org/2000/svg" xmlns:xlink="http://www.w3.org/1999/xlink" x="0px" y="0px"
	 viewBox="0 0 890 500" style="enable-background:new 0 0 890 500;" xml:space="preserve">
<style type="text/css">
	.st0{fill:#F8FAFD;}
	.st1{fill:#59B654;}
	.st2{fill:#FFFFFF;stroke:#BDC5D1;stroke-width:4;}
	.st3{fill:none;stroke:#BDC5D1;stroke-width:4;}
	.st4{fill:#BDC5D1;}
</style>
<rect class="st0" width="890" height="500"/>
<path class="st1" d="M744.5,259.3c0,27.7-22.4,50-50,50s-50-22.3-50-50c0-27.6,22.4-50,50-50C722.2,209.3,744.5,231.7,744.5,259.3z
	 M695.8,225.8c-11,0-18,4.6-23.5,12.8c-0.7,1-0.4,2.5,0.5,3.2l7,5.3c1,0.8,2.6,0.6,3.4-0.4c3.6-4.6,6-7.2,11.6-7.2
	c4.1,0,9.2,2.7,9.2,6.6c0,3-2.5,4.6-6.6,6.9c-4.7,2.7-11,6-11,14.2v0.8c0,1.3,1.1,2.4,2.4,2.4h11.3c1.3,0,2.4-1.1,2.4-2.4v-0.3
	c0-5.8,16.7-6,16.7-21.5C719.4,234.7,707.2,225.8,695.8,225.8L695.8,225.8z M694.5,275.8c-5.1,0-9.3,4.1-9.3,9.3
	c0,5.1,4.1,9.3,9.3,9.3s9.3-4.1,9.3-9.3C703.8,280,699.6,275.8,694.5,275.8z"/>
<path class="st2" d="M573.3,157.5v208c0,5-4,9-9,9h-405c-5,0-9-4-9-9v-208c0-5,4-9,9-9h405C569.3,148.5,573.3,152.5,573.3,157.5z"/>
<line class="st3" x1="149.5" y1="216.5" x2="572.3" y2="216.5"/>
<path class="st4" d="M546.3,182.5L546.3,182.5c0,5-4,9-9,9h-355c-5,0-9-4-9-9l0,0c0-5,4-9,9-9h355
	C542.3,173.5,546.3,177.5,546.3,182.5z"/>
<path class="st4" d="M502.3,252.5L502.3,252.5c0,5-4,9-9,9h-311c-5,0-9-4-9-9l0,0c0-5,4-9,9-9h311
	C498.3,243.5,502.3,247.5,502.3,252.5z"/>
<path class="st4" d="M430.3,296.5L430.3,296.5c0,5-4,9-9,9h-239c-5,0-9-4-9-9l0,0c0-5,4-9,9-9h239
	C426.3,287.5,430.3,291.5,430.3,296.5z"/>
<path class="st4" d="M525.3,340.5L525.3,340.5c0,5-4,9-9,9h-334c-5,0-9-4-9-9l0,0c0-5,4-9,9-9h334
	C521.3,331.5,525.3,335.5,525.3,340.5z"/>
<path class="st2" d="M599.8,265.3L575,289.6c-0.6,0.6-1.7,0.2-1.7-0.7v-56.1l0,0l26.5,25.9C601.7,260.5,601.7,263.5,599.8,265.3z"/>
</svg>

<svg width="890" height="500" viewBox="0 0 890 500" fill="none" xmlns="http://www.w3.org/2000/svg">
<path d="M890 0H0V500H890V0Z" fill="#F8FAFD"/>
<path d="M744.5 259.3C744.5 287 722.1 309.3 694.5 309.3C666.9 309.3 644.5 287 644.5 259.3C644.5 231.7 666.9 209.3 694.5 209.3C722.2 209.3 744.5 231.7 744.5 259.3ZM695.8 225.8C684.8 225.8 677.8 230.4 672.3 238.6C671.6 239.6 671.9 241.1 672.8 241.8L679.8 247.1C680.8 247.9 682.4 247.7 683.2 246.7C686.8 242.1 689.2 239.5 694.8 239.5C698.9 239.5 704 242.2 704 246.1C704 249.1 701.5 250.7 697.4 253C692.7 255.7 686.4 259 686.4 267.2V268C686.4 269.3 687.5 270.4 688.8 270.4H700.1C701.4 270.4 702.5 269.3 702.5 268V267.7C702.5 261.9 719.2 261.7 719.2 246.2C719.4 234.7 707.2 225.8 695.8 225.8ZM694.5 275.8C689.4 275.8 685.2 279.9 685.2 285.1C685.2 290.2 689.3 294.4 694.5 294.4C699.7 294.4 703.8 290.3 703.8 285.1C703.8 280 699.6 275.8 694.5 275.8Z" fill="#59B654"/>
<path d="M573.3 157.5V365.5C573.3 370.5 569.3 374.5 564.3 374.5H159.3C154.3 374.5 150.3 370.5 150.3 365.5V157.5C150.3 152.5 154.3 148.5 159.3 148.5H564.3C569.3 148.5 573.3 152.5 573.3 157.5Z" fill="white" stroke="#BDC5D1" stroke-width="4"/>
<path d="M149.5 216.5H572.3" stroke="#BDC5D1" stroke-width="4"/>
<path d="M546.3 182.5C546.3 187.5 542.3 191.5 537.3 191.5H182.3C177.3 191.5 173.3 187.5 173.3 182.5C173.3 177.5 177.3 173.5 182.3 173.5H537.3C542.3 173.5 546.3 177.5 546.3 182.5Z" fill="#BDC5D1"/>
<path d="M502.3 252.5C502.3 257.5 498.3 261.5 493.3 261.5H182.3C177.3 261.5 173.3 257.5 173.3 252.5C173.3 247.5 177.3 243.5 182.3 243.5H493.3C498.3 243.5 502.3 247.5 502.3 252.5Z" fill="#BDC5D1"/>
<path d="M430.3 296.5C430.3 301.5 426.3 305.5 421.3 305.5H182.3C177.3 305.5 173.3 301.5 173.3 296.5C173.3 291.5 177.3 287.5 182.3 287.5H421.3C426.3 287.5 430.3 291.5 430.3 296.5Z" fill="#BDC5D1"/>
<path d="M525.3 340.5C525.3 345.5 521.3 349.5 516.3 349.5H182.3C177.3 349.5 173.3 345.5 173.3 340.5C173.3 335.5 177.3 331.5 182.3 331.5H516.3C521.3 331.5 525.3 335.5 525.3 340.5Z" fill="#BDC5D1"/>
<path d="M599.8 265.3L575 289.6C574.4 290.2 573.3 289.8 573.3 288.9V232.8L599.8 258.7C601.7 260.5 601.7 263.5 599.8 265.3Z" fill="white" stroke="#BDC5D1" stroke-width="4"/>
</svg>
